X:855
T:Bile Them Cabbage Down
S:Marion Thede,  The Fiddle Book
Z:Nigel Gatherer
L:1/16
M:2/4
K:D
de | f2f2 fdfd | [d3f3][df]-[d2f2]gf | f2f2 fdfd | [c3e3][ce] [c2e2]de |
f2f2 fdfd | gagf g2fg | a2a2 f2e2 | dfed [d2f2] :|
<end>
<start>
